Numix/64/mimetypes/application-x-desktop.svg

<?xml version="1.0" encoding="UTF-8" standalone="no"?>
<svg
   xmlns:dc="http://purl.org/dc/elements/1.1/"
   xmlns:cc="http://creativecommons.org/ns#"
   xmlns:rdf="http://www.w3.org/1999/02/22-rdf-syntax-ns#"
   xmlns:svg="http://www.w3.org/2000/svg"
   xmlns="http://www.w3.org/2000/svg"
   xmlns:sodipodi="http://sodipodi.sourceforge.net/DTD/sodipodi-0.dtd"
   xmlns:inkscape="http://www.inkscape.org/namespaces/inkscape"
   width="64px"
   height="64px"
   viewBox="0 0 64 64"
   version="1.1"
   id="svg2"
   inkscape:version="0.91 r13725"
   sodipodi:docname="application-x-desktop.svg">
  <metadata
     id="metadata17">
    <rdf:RDF>
      <cc:Work
         rdf:about="">
        <dc:format>image/svg+xml</dc:format>
        <dc:type
           rdf:resource="http://purl.org/dc/dcmitype/StillImage" />
      </cc:Work>
    </rdf:RDF>
  </metadata>
  <defs
     id="defs15" />
  <sodipodi:namedview
     pagecolor="#ffffff"
     bordercolor="#666666"
     borderopacity="1"
     objecttolerance="10"
     gridtolerance="10"
     guidetolerance="10"
     inkscape:pageopacity="0"
     inkscape:pageshadow="2"
     inkscape:window-width="1920"
     inkscape:window-height="1013"
     id="namedview13"
     showgrid="false"
     inkscape:zoom="3.6875"
     inkscape:cx="-2.9830508"
     inkscape:cy="32"
     inkscape:window-x="0"
     inkscape:window-y="27"
     inkscape:window-maximized="1"
     inkscape:current-layer="svg2" />
  <path
     inkscape:connector-curvature="0"
     id="path5"
     d="M 10.671875,0 C 9.296875,0 8,1.355469 8,2.789062 L 8,61.210938 C 8,62.566406 9.375,64 10.671875,64 l 42.65625,0 C 54.625,64 56,62.566406 56,61.210938 L 56,18 38,0 Z m 0,0"
     style="fill:#dcdcdc;fill-opacity:1;fill-rule:nonzero;stroke:none" />
  <path
     inkscape:connector-curvature="0"
     id="path7"
     d="m 42,18 14,14 0,-14 z m 0,0"
     style="fill:#000000;fill-opacity:0.19607801;fill-rule:nonzero;stroke:none" />
  <path
     inkscape:connector-curvature="0"
     id="path9"
     d="M 38,0 55.984375,18 40.757812,18 C 39.410156,18 38,16.574219 38,15.226562 Z m 0,0"
     style="fill:#ffffff;fill-opacity:0.39215698;fill-rule:nonzero;stroke:none" />
  <path
     inkscape:connector-curvature="0"
     id="path11"
     d="m 31.101562,18.8125 c -2.671874,0.851562 -0.328124,4.828125 -4.15625,6.773438 -4.367187,2.226562 -6.539062,-3.390626 -9.164062,0.625 -2.625,4.007812 3.617188,3.390624 3.445312,8.109374 -0.179687,4.71875 -6.359374,3.71875 -4.039062,7.882813 2.320312,4.164063 4.898438,-1.296875 9.09375,1.195313 4.195312,2.492187 0.179688,7.109374 5.125,7.265624 4.945312,0.15625 1.273438,-4.695312 5.648438,-6.921874 4.367187,-2.226563 6.539062,3.398437 9.164062,-0.617188 2.625,-4.007812 -3.617188,-3.390625 -3.445312,-8.109375 0.179687,-4.71875 6.359374,-3.71875 4.039062,-7.882813 -2.320312,-4.171874 -4.898438,1.296876 -9.09375,-1.195312 -4.195312,-2.492188 -0.179688,-7.109375 -5.125,-7.265625 -0.617188,-0.01563 -1.109375,0.01563 -1.492188,0.140625 z m 0.04688,12.015625 c 2.210937,-0.445313 4.375,0.90625 4.84375,3.023437 0.46875,2.117188 -0.9375,4.203126 -3.140626,4.65625 -2.210937,0.445313 -4.375,-0.90625 -4.84375,-3.023437 -0.46875,-2.117187 0.9375,-4.203125 3.140626,-4.65625 z m 0,0"
     style="fill:#888888;fill-opacity:1;fill-rule:nonzero;stroke:none" />
</svg>

<svg xmlns="http://www.w3.org/2000/svg" xmlns:xlink="http://www.w3.org/1999/xlink" width="64px" height="64px" viewBox="0 0 64 64" version="1.1">
<g id="surface1">
<path style=" stroke:none;fill-rule:nonzero;fill:rgb(86.27451%,86.27451%,86.27451%);fill-opacity:1;" d="M 10.671875 0 C 9.296875 0 8 1.355469 8 2.789062 L 8 61.210938 C 8 62.566406 9.375 64 10.671875 64 L 53.328125 64 C 54.625 64 56 62.566406 56 61.210938 L 56 18 L 38 0 Z M 10.671875 0 "/>
<path style=" stroke:none;fill-rule:nonzero;fill:rgb(0%,0%,0%);fill-opacity:0.196078;" d="M 42 18 L 56 32 L 56 18 Z M 42 18 "/>
<path style=" stroke:none;fill-rule:nonzero;fill:rgb(100%,100%,100%);fill-opacity:0.392157;" d="M 38 0 L 55.984375 18 L 40.757812 18 C 39.410156 18 38 16.574219 38 15.226562 Z M 38 0 "/>
<path style=" stroke:none;fill-rule:nonzero;fill:rgb(53.333333%,53.333333%,53.333333%);fill-opacity:1;" d="M 31.101562 18.8125 C 28.429688 19.664062 30.773438 23.640625 26.945312 25.585938 C 22.578125 27.8125 20.40625 22.195312 17.78125 26.210938 C 15.15625 30.21875 21.398438 29.601562 21.226562 34.320312 C 21.046875 39.039062 14.867188 38.039062 17.1875 42.203125 C 19.507812 46.367188 22.085938 40.90625 26.28125 43.398438 C 30.476562 45.890625 26.460938 50.507812 31.40625 50.664062 C 36.351562 50.820312 32.679688 45.96875 37.054688 43.742188 C 41.421875 41.515625 43.59375 47.140625 46.21875 43.125 C 48.84375 39.117188 42.601562 39.734375 42.773438 35.015625 C 42.953125 30.296875 49.132812 31.296875 46.8125 27.132812 C 44.492188 22.960938 41.914062 28.429688 37.71875 25.9375 C 33.523438 23.445312 37.539062 18.828125 32.59375 18.671875 C 31.976562 18.65625 31.484375 18.6875 31.101562 18.8125 Z M 31.148438 30.828125 C 33.359375 30.382812 35.523438 31.734375 35.992188 33.851562 C 36.460938 35.96875 35.054688 38.054688 32.851562 38.507812 C 30.640625 38.953125 28.476562 37.601562 28.007812 35.484375 C 27.539062 33.367188 28.945312 31.28125 31.148438 30.828125 Z M 31.148438 30.828125 "/>
</g>
</svg>
